X:1
T:Title
L:1/8
Q:1/4=100
M:4/4
K:F
V:1 treble nm="Grand Piano"
V:1
 A2 AG A2 AG | A6 EF | G2 GF AGFG | E6 DE | F2 F2 G2 FG | A6 GA | B2 B2 c2 Bc | A8 | A2 AA A2 A2 | %9
w: ????~???? * * * * *|||||||||
 A2 GA B2 B2 | G2 G2 G2 G2 | G2 FG A2 A2 | F2 FF F2 F2 | F2 EF G2 G2 | F2 G2 A2 B2 | c2 Bc B2 A2 |] %16
w: |||||||

